X: 16262
T: Gremlin
R: jig
M: 6/8
K: Dminor
|:DAF GEF|A,FE DA,C|DA,D EDE|FDF GcB|
AFA GFE|DA,D EDE|FEF GEG|1 Adc d2F:|2 Adc d2G||
|:A2A BAG|ADD D2E|F3 FED|G3 GFE|
A2A BAG|Adc d2e|fed Adc|1 Adc d2G:|2 Adc d2F||

